material/.icons/material/toy-brick-marker-outline.svg

<svg xmlns="http://www.w3.org/2000/svg" viewBox="0 0 24 24"><path d="M18.5 12a3.54 3.54 0 00-3.5 3.5c0 2.6 3.5 6.5 3.5 6.5s3.5-3.9 3.5-6.5a3.54 3.54 0 00-3.5-3.5m0 4.8a1.2 1.2 0 110-2.4 1.29 1.29 0 011.2 1.2 1.15 1.15 0 01-1.2 1.2M19 6V5a2 2 0 00-2-2h-2a2 2 0 00-2 2v1h-2V5a2 2 0 00-2-2H7a2 2 0 00-2 2v1H3v14h11.54a15.55 15.55 0 01-1-2H5V8h14v2a5.11 5.11 0 012 .6V6z"/></svg>

<?xml version="1.0" encoding="UTF-8"?><!DOCTYPE svg PUBLIC "-//W3C//DTD SVG 1.1//EN" "http://www.w3.org/Graphics/SVG/1.1/DTD/svg11.dtd"><svg xmlns="http://www.w3.org/2000/svg" xmlns:xlink="http://www.w3.org/1999/xlink" version="1.1" id="mdi-toy-brick-marker-outline" width="24" height="24" viewBox="0 0 24 24"><path d="M18.5 12A3.54 3.54 0 0 0 15 15.5C15 18.1 18.5 22 18.5 22S22 18.1 22 15.5A3.54 3.54 0 0 0 18.5 12M18.5 16.8A1.2 1.2 0 1 1 18.5 14.4A1.29 1.29 0 0 1 19.7 15.6A1.15 1.15 0 0 1 18.5 16.8M19 6V5A2 2 0 0 0 17 3H15A2 2 0 0 0 13 5V6H11V5A2 2 0 0 0 9 3H7A2 2 0 0 0 5 5V6H3V20H14.54A15.55 15.55 0 0 1 13.54 18H5V8H19V10A5.11 5.11 0 0 1 21 10.6V6Z" /></svg>
